!!!!SEGMENT: pl-sa--l-1636--017_anonim--keyboard-piece.krn
!!!cenid: 17xx:724
!!!COM: Anonim
!!!COM-rismid: pe30004985
!!!CDT:
!!!CNT:
!!!OTL: [Keyboard piece]
!!!PDT:
!!!AGN: Secular
!!!SMS-siglum: PL-SA
!!!SMS-shelfmark: L 1636
!!!SMS-shelfwork: 017 W
!!!SMS-variant:
!!!SMS-altvar:
!!!NIFC-rismid: 1001076401
!!!URL-scan: http://repozytorium.nifc.pl/skany/pl-sa-nut--l1636
!!!ONB-nifc: 5v, skan 0009, s. 1-2
**kern	**kern
*part1	*part1
*staff2	*staff1
*Iempty	*Iempty
*I"	*I"
*I'keyb	*I'keyb
*clefF4	*clefC1
*k[]	*k[]
*d:	*d:
*M2/2	*M2/2
*met(c|)	*met(c|)
=1	=1
*all\right	*all\right
!	!LO:TX:a:t=P:problem:mixed beam
2D/	8d/L
.	8dd\
.	8dd\
.	8dd\J
8r	4a\
8d\L	.
8d\	4b\
8d\J	.
=2	=2
4A\	4cc\
4B\	8.b\L
.	16a\Jk
4c\	4g/
8B\L	4a\
8A\J	.
=3	=3
4B\	4g/
4c\	8.f/L
.	16e/Jk
8d\L	2f/
8A\J	.
[4d\	.
=4	=4
*^	*
4d/]	8r	2e/
.	8A\L	.
4c#X/	8A\	.
.	8A\J	.
4d/	4D\	4f/
8c#/L	4E\	4g/
8B/J	.	.
=5	=5	=5
4A/	4F\	4a\
4B/	8E\L	8g/L
.	8D\J	8f/J
2c/	8C\L	2e/
.	8D\	.
.	8E\	.
.	8F\J	.
=6	=6	=6
8B/L	4G\	8d/L
8c#X/J	.	8e/J
4d/	8F\L	4f/
.	8G\J	.
*	*2\right	*
4d/	2A\	2d/
4c#/	.	.
*v	*v	*
!!LO:LB:g=original
=7	=7
*	*^
*	*	*2\right
4D/	2f/	2d\
8C/L	.	.
8D/J	.	.
4AA/	8e/L	4c\
.	8a/J	.
4BB/	8g/L	4d\
.	8f/J	.
=8	=8	=8
*^	*	*
!!linebreak:original
8C/L	2ryy	4e/	4c\
8AA/	.	.	.
8D/	.	4d/	4B\
8E/J	.	.	.
4.A/	4.F\	8c/L	2ryy
.	.	8A/	.
.	.	8d/	.
8G/	8E\	8e/J	.
=9	=9	=9	=9
*	*	*	*^
2F/	2D\	2f/	2c\	2ryy
!LO:N:xstem:cue	!	!	!	!
8F/	2AA\	2e/	4d\	4ryy
16E/LL	.	.	.	.
16D/JJ	.	.	.	.
4E/	.	.	4c#X/	8A\L
.	.	.	.	8G\J
*v	*v	*	*	*
*	*v	*v	*v
=10	=10
!LO:TX:a:t=P:problem:kreska taktowa :||:	!LO:TX:a:t=P:problem:kreska taktowa :||:
1D 1AA 1DD	1d 1A 1F
==	==
*-	*-
!!!system-decoration: s1,s2
!!!AIN: 1 empty
!!!ENC: Marta Lawrence
!!!END: 2020-12-07
!!!ENC: Tomasz Grochalski
!!!END: 2020-06-11
